X: 38790
T: Stybarrow Crag
R: hornpipe
M: 4/4
K: Gmajor
|:d>c|B2 d>B c2 e>c|d2 e>f g2 f>e|d>gd>B g>dc>B|B2 A>^G A2 (3edc|
B>cd>G c>de>c|d>ef>d (3gag (3gfe|d>gd>G A>^GA>B|G>gd>B G2:|
(3gfe|d>ef>d a>d (3fed|b>ge>^c d>Gd>B|c>Ae>c B>Gd>B|A>^GA>B A>d (3d^c=c|
B2 (3dcB c2 e>c|d>e (3fed g2 f>e|d>gd>G A2 (3cBA|(3GAG F2 G>AB>c|
d2 (3fed a>df>d|b>ge>^c d2 (3B=cd|c2 e>c (3BcB d>B|A>^GA>B A2 d>c|
(3Bcd c>e d>gf>a|g2 (3def (3gag (3gfe|d2 (3gdB A>^GA>B|G2 g2 G2||

